svg/postgres-white.svg

<?xml version="1.0" encoding="UTF-8"?>
<svg xmlns="http://www.w3.org/2000/svg" xmlns:xlink="http://www.w3.org/1999/xlink" width="32" height="32" viewBox="0 0 32 32">
<path fill-rule="nonzero" fill="rgb(100%, 100%, 100%)" fill-opacity="1" d="M 22 22.667969 C 22 22.53125 22.007812 22.414062 22.011719 22.289062 C 22.003906 22.121094 22 22 22 22 C 22 22 22.007812 21.992188 22.019531 21.984375 C 22.121094 20.203125 22.613281 19.515625 23.136719 19.125 C 23.066406 19.023438 22.980469 18.914062 22.902344 18.808594 C 22.679688 18.515625 22.402344 18.15625 22.105469 17.691406 L 22.050781 17.585938 C 22.007812 17.476562 21.898438 17.289062 21.761719 17.042969 C 20.972656 15.613281 19.332031 12.648438 20.453125 10.773438 C 20.945312 9.949219 21.871094 9.476562 23.203125 9.359375 C 22.65625 7.8125 20.617188 4.078125 15.988281 4 L 15.984375 4 C 11.957031 3.933594 10.636719 7.59375 10.203125 9.78125 C 10.800781 9.527344 11.445312 9.390625 12.09375 9.378906 L 12.125 9.378906 C 13.652344 9.386719 14.699219 10.203125 15.007812 11.613281 C 15.230469 12.648438 15.335938 13.554688 15.335938 14.382812 C 15.328125 16.195312 14.960938 17.148438 14.640625 17.988281 L 14.535156 18.261719 C 14.457031 18.472656 14.371094 18.679688 14.285156 18.886719 C 14.199219 19.085938 14.125 19.261719 14.070312 19.421875 C 14.394531 19.492188 14.648438 19.597656 14.820312 19.675781 L 14.921875 19.71875 C 14.957031 19.730469 14.988281 19.746094 15.015625 19.765625 C 15.578125 20.109375 15.929688 20.636719 16.007812 21.253906 C 16.046875 21.585938 16.039062 23.847656 16.027344 25.824219 C 16.085938 26.679688 16.230469 27.398438 16.421875 27.921875 C 16.695312 28.664062 17.375 30.082031 18.683594 30 C 19.597656 29.941406 20.476562 29.386719 21.058594 28.652344 C 21.683594 27.867188 21.914062 26.996094 22 26.015625 Z M 10.074219 19.277344 C 9 18.15625 8.476562 16.648438 8.671875 15.242188 C 8.863281 13.882812 8.757812 12.554688 8.699219 11.84375 C 8.679688 11.605469 8.664062 11.425781 8.667969 11.328125 L 8.667969 11.304688 C 8.746094 9.292969 9.523438 6.113281 11.664062 4.226562 C 10.621094 3.816406 8.925781 3.273438 7.332031 3.332031 C 4.839844 3.425781 2.425781 5.148438 2.667969 10 C 2.757812 11.820312 4.816406 22.734375 7.625 22.667969 C 8.027344 22.65625 8.445312 22.398438 8.875 21.882812 C 9.460938 21.179688 10.0625 20.488281 10.679688 19.8125 C 10.464844 19.652344 10.261719 19.472656 10.074219 19.277344 M 24.683594 9.820312 C 24.691406 9.910156 24.683594 10.003906 24.667969 10.09375 C 24.6875 10.707031 24.621094 11.300781 24.554688 11.878906 C 24.496094 12.308594 24.457031 12.746094 24.441406 13.179688 C 24.425781 13.609375 24.488281 14.035156 24.550781 14.484375 C 24.703125 15.535156 24.855469 16.722656 24.042969 18.105469 C 24.191406 18.304688 24.324219 18.488281 24.429688 18.664062 C 27.503906 13.683594 28.742188 7.757812 27.558594 6.246094 C 25.769531 3.960938 23.292969 3.300781 21.332031 3.332031 C 20.777344 3.34375 20.226562 3.410156 19.683594 3.53125 C 23.066406 5.167969 24.574219 8.683594 24.683594 9.820312 M 27.332031 20.046875 C 25.558594 20.414062 24.703125 20.21875 24.289062 19.964844 C 24.21875 20.011719 24.152344 20.050781 24.09375 20.089844 C 23.84375 20.238281 23.453125 20.480469 23.355469 21.945312 C 23.410156 21.957031 23.460938 21.960938 23.519531 21.972656 L 23.808594 22 C 24.6875 22.039062 25.84375 21.792969 26.519531 21.480469 C 27.976562 20.804688 28.769531 19.75 27.332031 20.046875 M 14.683594 21.414062 C 14.65625 21.214844 14.550781 21.054688 14.355469 20.925781 L 14.28125 20.894531 C 14.042969 20.789062 13.769531 20.667969 13.332031 20.667969 C 13.246094 20.671875 13.160156 20.679688 13.078125 20.679688 C 13.042969 20.679688 13.007812 20.675781 12.972656 20.671875 C 12.65625 20.917969 12.207031 21.105469 11.097656 21.332031 C 9.109375 21.839844 10.28125 22.4375 11.042969 22.53125 C 11.78125 22.714844 13.535156 22.9375 14.699219 21.988281 C 14.699219 21.796875 14.695312 21.605469 14.683594 21.414062 M 13.789062 12.335938 C 13.59375 12.535156 13.285156 12.710938 12.945312 12.65625 C 12.394531 12.566406 11.96875 11.902344 12 11.652344 C 12.03125 11.402344 12.503906 11.273438 13.054688 11.363281 C 13.246094 11.394531 13.417969 11.445312 13.566406 11.511719 C 13.351562 11.054688 12.964844 10.789062 12.378906 10.726562 C 11.335938 10.609375 10.226562 11.15625 10.003906 11.457031 C 10.007812 11.53125 10.015625 11.625 10.027344 11.734375 C 10.089844 12.5 10.203125 13.925781 9.992188 15.425781 C 9.855469 16.414062 10.253906 17.539062 11.039062 18.355469 C 11.542969 18.882812 12.132812 19.214844 12.710938 19.316406 C 12.785156 18.996094 12.917969 18.683594 13.054688 18.363281 C 13.128906 18.1875 13.210938 18 13.285156 17.796875 L 13.394531 17.511719 C 13.6875 16.742188 13.992188 15.945312 14 14.375 C 14.003906 13.773438 13.929688 13.085938 13.789062 12.335938 M 23.230469 14.671875 C 23.160156 14.183594 23.089844 13.683594 23.109375 13.136719 C 23.125 12.640625 23.179688 12.175781 23.230469 11.722656 C 23.273438 11.367188 23.304688 11.027344 23.324219 10.691406 C 22.460938 10.761719 21.894531 11.007812 21.621094 11.429688 C 21.734375 11.390625 21.859375 11.359375 22 11.34375 C 22.59375 11.265625 23.03125 11.4375 23.078125 11.765625 C 23.117188 12.007812 22.910156 12.238281 22.820312 12.324219 C 22.636719 12.503906 22.402344 12.621094 22.167969 12.648438 C 22.125 12.65625 22.082031 12.65625 22.039062 12.65625 C 21.8125 12.65625 21.59375 12.585938 21.40625 12.457031 C 21.480469 13.773438 22.449219 15.53125 22.929688 16.394531 C 23.03125 16.582031 23.109375 16.726562 23.175781 16.855469 C 23.4375 16.109375 23.339844 15.429688 23.230469 14.671875 M 23.230469 14.671875 "/>
</svg>

<svg role="img" viewBox="0 0 32 32" xmlns="http://www.w3.org/2000/svg"><path d="M22 22.668c0-.137.008-.254.012-.379C22.004 22.121 22 22 22 22s.008-.008.02-.016c.101-1.78.593-2.468 1.117-2.859-.07-.102-.157-.21-.235-.316-.222-.293-.5-.653-.797-1.118l-.054-.105c-.043-.11-.153-.297-.29-.543-.788-1.43-2.429-4.395-1.308-6.27.492-.824 1.418-1.296 2.75-1.414-.547-1.546-2.586-5.28-7.215-5.359h-.004c-4.027-.066-5.347 3.594-5.78 5.781a5.1 5.1 0 0 1 1.89-.402h.031c1.527.008 2.574.824 2.883 2.234.222 1.035.328 1.942.328 2.77-.008 1.812-.375 2.765-.695 3.605l-.106.274c-.078.21-.164.418-.25.625q-.13.297-.215.535c.325.07.578.176.75.254l.102.043a.4.4 0 0 1 .094.047c.562.343.914.87.992 1.488.039.332.031 2.594.02 4.57.058.856.202 1.574.394 2.098.273.742.953 2.16 2.262 2.078.914-.059 1.793-.613 2.375-1.348.625-.785.855-1.656.941-2.636Zm-11.926-3.39C9 18.155 8.477 16.647 8.672 15.241c.191-1.36.086-2.687.027-3.398-.02-.239-.035-.418-.031-.516v-.023c.078-2.012.855-5.192 2.996-7.078-1.043-.41-2.738-.954-4.332-.895C4.84 3.426 2.426 5.148 2.668 10c.09 1.82 2.148 12.734 4.957 12.668.402-.012.82-.27 1.25-.785a61 61 0 0 1 1.805-2.07 5 5 0 0 1-.606-.536m14.61-9.457q.01.137-.016.274c.02.613-.047 1.207-.113 1.785-.059.43-.098.867-.114 1.3-.015.43.047.856.11 1.305.152 1.051.304 2.239-.508 3.621.148.2.281.383.387.56 3.074-4.981 4.312-10.907 3.129-12.419-1.79-2.285-4.266-2.945-6.227-2.914a8.4 8.4 0 0 0-1.648.2c3.382 1.636 4.89 5.152 5 6.288m2.648 10.227c-1.773.367-2.629.172-3.043-.082-.07.047-.137.086-.195.125-.25.148-.64.39-.739 1.855.055.012.106.016.165.028l.289.027c.878.04 2.035-.207 2.71-.52 1.458-.675 2.25-1.73.813-1.433m-12.648 1.367c-.028-.2-.133-.36-.329-.488l-.074-.031c-.238-.106-.511-.227-.949-.227-.086.004-.172.012-.254.012q-.053-.001-.105-.008c-.317.246-.766.433-1.875.66-1.989.508-.817 1.105-.055 1.2.738.183 2.492.406 3.656-.544q0-.287-.015-.574m-.895-9.078c-.195.2-.504.375-.844.32-.55-.09-.976-.754-.945-1.004s.504-.379 1.055-.289q.288.048.511.149c-.214-.457-.601-.723-1.187-.785-1.043-.118-2.152.43-2.375.73q.006.112.023.277c.063.766.176 2.192-.035 3.692-.137.988.262 2.113 1.047 2.93.504.527 1.094.859 1.672.96.074-.32.207-.632.344-.953.074-.175.156-.363.23-.566l.11-.285c.293-.77.597-1.567.605-3.137.004-.602-.07-1.29-.21-2.04m9.44 2.337c-.07-.488-.14-.988-.12-1.535.015-.496.07-.961.12-1.414.043-.356.075-.696.094-1.032q-1.292.105-1.703.739.168-.061.379-.086c.594-.078 1.031.094 1.078.422.04.242-.168.472-.258.558-.183.18-.418.297-.652.324q-.064.01-.129.008c-.227 0-.445-.07-.633-.199.074 1.316 1.043 3.074 1.524 3.938.101.187.18.332.246.46.262-.746.164-1.425.054-2.183m0 0" fill="rgb(100%, 100%, 100%)"/></svg>
